img/place-icon.svg

<svg width="14" height="20" viewBox="0 0 14 20" fill="none" xmlns="http://www.w3.org/2000/svg">
<path d="M7.02008 3.90632C5.5438 3.89562 4.33479 5.11238 4.32362 6.62015C4.3125 8.12785 5.50412 9.36364 6.97993 9.375C6.98678 9.37504 6.99358 9.37508 7.00043 9.37508C8.46684 9.37508 9.6653 8.16195 9.67639 6.66117C9.68751 5.15355 8.49593 3.91769 7.02008 3.90632ZM7.00035 8.59387C6.99553 8.59387 6.99048 8.59383 6.98567 8.59379C5.9315 8.58567 5.08032 7.70293 5.08828 6.62601C5.09619 5.55394 5.95219 4.68745 6.99966 4.68745C7.00448 4.68745 7.00953 4.68749 7.01434 4.68753C8.06851 4.69566 8.91969 5.57839 8.91173 6.65531C8.90378 7.72738 8.04782 8.59387 7.00035 8.59387Z" fill="#FF7010"/>
<path d="M9.34597 14.7048C11.8891 11.3605 13.4784 9.6165 13.4998 6.69056C13.5267 3.00919 10.6025 0 6.99941 0C3.43839 0 0.527289 2.94641 0.500219 6.59095C0.478349 9.59623 2.09716 11.3378 4.65781 14.7042C2.11043 15.0932 0.500219 16.0704 0.500219 17.2657C0.500219 18.0663 1.22461 18.7848 2.53999 19.2887C3.73723 19.7474 5.32118 20 7.00002 20C8.67886 20 10.2628 19.7474 11.46 19.2887C12.7754 18.7848 13.4998 18.0663 13.4998 17.2656C13.4998 16.071 11.8911 15.094 9.34597 14.7048ZM1.26487 6.59685C1.28873 3.38087 3.85714 0.781252 6.99948 0.781252C10.179 0.781252 12.7589 3.43704 12.7352 6.68474C12.7148 9.46342 11.0294 11.1758 8.33853 14.7595C7.85857 15.3984 7.41781 16.0025 7.00059 16.5934C6.5846 16.0021 6.15262 15.4089 5.66548 14.7593C2.86342 11.0255 1.24415 9.44256 1.26487 6.59685ZM7.00002 19.2188C3.71754 19.2188 1.26487 18.1877 1.26487 17.2657C1.26487 16.5819 2.73109 15.7182 5.19638 15.4191C5.74134 16.1496 6.21911 16.8132 6.68772 17.4911C6.75929 17.5946 6.8756 17.6562 6.99967 17.6563C6.99979 17.6563 6.9999 17.6563 7.00002 17.6563C7.12397 17.6563 7.24024 17.5949 7.31193 17.4916C7.7761 16.8226 8.26696 16.1425 8.80725 15.4195C11.2702 15.7189 12.7352 16.5824 12.7352 17.2657C12.7351 18.1877 10.2825 19.2188 7.00002 19.2188Z" fill="#FF7010"/>
</svg>

<svg width="14" height="20" fill="none" xmlns="http://www.w3.org/2000/svg"><path d="M7.02 3.906c-1.476-.01-2.685 1.206-2.696 2.714-.011 1.508 1.18 2.744 2.656 2.755H7c1.467 0 2.665-1.213 2.676-2.714.012-1.507-1.18-2.743-2.656-2.755ZM7 8.594h-.014c-1.054-.008-1.906-.891-1.898-1.968.008-1.072.864-1.939 1.912-1.939h.014c1.055.009 1.906.891 1.898 1.968C8.904 7.727 8.048 8.594 7 8.594Z" fill="#FF7010"/><path d="M9.346 14.705c2.543-3.345 4.132-5.088 4.154-8.014C13.527 3.009 10.602 0 7 0 3.437 0 .526 2.946.5 6.591c-.022 3.005 1.597 4.747 4.158 8.113C2.11 15.094.5 16.07.5 17.266c0 .8.725 1.519 2.04 2.023C3.737 19.747 5.321 20 7 20c1.679 0 3.263-.253 4.46-.711 1.315-.504 2.04-1.223 2.04-2.023 0-1.195-1.609-2.172-4.154-2.561ZM1.265 6.597C1.289 3.38 3.857.78 6.999.78c3.18 0 5.76 2.656 5.736 5.904-.02 2.778-1.706 4.49-4.396 8.075A76.66 76.66 0 0 0 7 16.592a73.844 73.844 0 0 0-1.336-1.834c-2.802-3.734-4.42-5.316-4.4-8.162ZM7 19.219c-3.282 0-5.735-1.031-5.735-1.953 0-.684 1.466-1.548 3.931-1.847a69.5 69.5 0 0 1 1.492 2.072.38.38 0 0 0 .312.165.38.38 0 0 0 .312-.164c.464-.67.955-1.35 1.495-2.073 2.463.3 3.928 1.163 3.928 1.847 0 .922-2.452 1.953-5.735 1.953Z" fill="#FF7010"/></svg>
